docs/img/promo/promo-car-star-1-mob.svg

<svg width="207" height="230" viewBox="0 0 207 230" fill="none" xmlns="http://www.w3.org/2000/svg">
<path d="M69.4982 76.9905C73.0319 63.1635 90.74 59.1528 99.8866 70.1077L109.561 81.6952C112.476 85.1858 116.379 87.7114 120.758 88.9392L127.437 90.8122C141.629 94.792 144.845 113.461 132.803 121.96L128.964 124.669C124.762 127.635 121.703 131.951 120.296 136.898L116.272 151.048C112.265 165.138 93.7542 168.363 85.2179 156.459L78.0017 146.395C74.6721 141.752 69.7005 138.549 64.0959 137.437L60.091 136.642C45.2218 133.692 40.8814 114.519 53.0303 105.452L58.0181 101.73C62.1418 98.6523 65.0862 94.2542 66.3602 89.2689L69.4982 76.9905Z" stroke="white" stroke-opacity="0.6" stroke-width="5"/>
<path d="M80.0758 86.2824C81.5902 80.3566 89.1794 78.6377 93.0994 83.3327L103.112 95.3246C104.731 97.2638 106.899 98.6669 109.332 99.349L119.777 102.278C125.859 103.984 127.237 111.984 122.076 115.627L114.279 121.13C111.944 122.778 110.245 125.176 109.463 127.924L105.139 143.13C103.422 149.169 95.4883 150.551 91.8299 145.449L83.4115 133.709C81.5617 131.13 78.7997 129.35 75.686 128.732L66.2138 126.853C59.8413 125.588 57.9811 117.371 63.1878 113.486L71.9246 106.965C74.2156 105.256 75.8513 102.812 76.5591 100.043L80.0758 86.2824Z" stroke="white" stroke-opacity="0.8" stroke-width="5"/>
<path d="M65.5951 57.638C69.1288 43.8111 86.8369 39.8003 95.9835 50.7553L115.418 74.0315C118.332 77.522 122.235 80.0476 126.614 81.2754L146.692 86.9059C160.884 90.8856 164.1 109.554 152.058 118.053L137.134 128.587C132.932 131.553 129.873 135.868 128.466 140.815L120.081 170.3C116.075 184.39 97.5634 187.615 89.0271 175.711L72.7393 152.996C69.4097 148.353 64.4381 145.15 58.8335 144.038L40.7418 140.448C25.8726 137.498 21.5322 118.325 33.6811 109.258L50.442 96.7495C54.5658 93.672 57.5101 89.2739 58.7842 84.2886L65.5951 57.638Z" stroke="white" stroke-opacity="0.2" stroke-width="5"/>
</svg>

<svg width="207" height="230" fill="none" xmlns="http://www.w3.org/2000/svg"><path d="M69.498 76.99c3.534-13.826 21.242-17.837 30.389-6.882l9.674 11.587a22.502 22.502 0 0011.197 7.244l6.679 1.873c14.192 3.98 17.408 22.649 5.366 31.148l-3.839 2.709a22.504 22.504 0 00-8.668 12.229l-4.024 14.15c-4.007 14.09-22.518 17.315-31.054 5.411l-7.216-10.064a22.501 22.501 0 00-13.906-8.958l-4.005-.795c-14.87-2.95-19.21-22.123-7.06-31.19l4.987-3.722a22.501 22.501 0 008.342-12.461l3.138-12.279z" stroke="#fff" stroke-opacity=".6" stroke-width="5"/><path d="M80.076 86.282c1.514-5.925 9.103-7.644 13.023-2.95l10.013 11.993a12.497 12.497 0 006.22 4.024l10.445 2.929c6.082 1.706 7.46 9.706 2.299 13.349l-7.797 5.503a12.504 12.504 0 00-4.816 6.794l-4.324 15.206c-1.717 6.039-9.65 7.421-13.31 2.319l-8.417-11.74a12.504 12.504 0 00-7.726-4.977l-9.472-1.879c-6.373-1.265-8.233-9.482-3.026-13.367l8.737-6.521a12.498 12.498 0 004.634-6.922l3.517-13.76z" stroke="#fff" stroke-opacity=".8" stroke-width="5"/><path d="M65.595 57.638C69.13 43.811 86.837 39.8 95.984 50.755l19.434 23.276a22.495 22.495 0 0011.196 7.244l20.078 5.63c14.192 3.98 17.408 22.649 5.366 31.148l-14.924 10.534a22.502 22.502 0 00-8.668 12.228l-8.385 29.485c-4.006 14.09-22.518 17.315-31.054 5.411L72.74 152.996a22.501 22.501 0 00-13.906-8.958l-18.091-3.59c-14.87-2.95-19.21-22.123-7.06-31.19l16.76-12.508a22.5 22.5 0 008.342-12.461l6.811-26.651z" stroke="#fff" stroke-opacity=".2" stroke-width="5"/></svg>
